X: 231
T: Miss Devereux Reel
%O: 1795
%R: reel
Z: 2018 John Chambers <jc:trillian.mit.edu>
B: Wm. Campbell "10th Book of New and Favorite Country Dances, Strathspey Reels" 1795 p.23
F: https://archive.org/details/campbellstenthbo00camp
%%slurgraces yes
%%graceslurs yes
M: C|
L: 1/8
K: D
% - - - - - - - - - - - - - - - - - - - - - - - - -
% Voice 1 arranged for small-scale proofreading
V: 1 staves=2
f |\
{c}d2dA FDAF | E(eed) (cABc) |\
d<A B/A/G FAGB | A>d cB/A/ Bdd :: g |\
fdad fada | gebe gbeg |
fdad fada | fdec dDDg |\
fdad fada | gebe gbeg |\
fdec dBAG | FAdg fdd :|
% - - - - - - - - - - - - - - - - - - - - - - - - -
% Voice 1 preserves the original staff layout
V: 2 clef=bass middle=d
z |\
d2d2 d2d2 | A2a2 a2g2 | f2d2 d2d2 | d2A2 d2d :: z |\
d2A2 d2A2 |
e2A2 e2A2 | d2A2 d2A2 | d2a2 d2d2 |\
d2A2 d2A2 | [e2c2]A2 [e2c2]A2 | d2A2 d2d2 | a2A2 d2d :|
% - - - - - - - - - - - - - - - - - - - - - - - - -
%%begintext align
%% 1st & 2d Cu set & change sides & back again
%% lead down the middle up again & allemande
%% swing corners & hands 6 round back again.
%%endtext
% - - - - - - - - - - - - - - - - - - - - - - - - -

%%sep 1 1 500
%%sep 1 1 500

